X: 1
T: Father O'Flynn
R: jig
M: 6/8
L: 1/8
K: Dmaj
|: "D" dAF DFA | ded "A" cBA | "D" d3 "A" efg      | "D" fdf "A" ecA |
   "D" dAF DFA | Bed "A" cBA | "D" dcd "A7" e/f/ge |1 fdc "D" d2a   :|2 fdc "D" d3 ||
|: "D" f3  fga | "A" ecA ABc | "D" dcd "Em" Bed    | "A" cAA A2=c    |
   "G" BGE EFG | "D" AFD DFA |     d3 "A7" efg     |1 fdc "D" d3    :|2 fdc "D" d2c ||
